X:082
T: Jackson's Coge in the Morning
% I have no idea what a "coge" is - ? "coggie" (Scots = cup)
N: O'Farrell's Pocket Companion v.1 (Sky ed. p.18)
N: "Irish"
M: 6/8
L: 1/8
R: jig
Q: 320
K: Am
A|E2A A2B|c2A BGE|GAG AGE|G2B GED|
E2A A2c| BAG Bcd|ege dBG|A3 A2 :|
z|e2a a2b|c'2a bge|g2e g2a|b2a ged|
e2a abc'|bag a2e|gfe dBG|A3 A2 :|
